X: 242
M: C
L: 1/8
K: G
V: 1
[dB][cA] |\
[B2G2][BG][AF] G3B | cBAG E2dc | B2BA G2E2 | F2[A2F2] [A2F2]dc |
|: Bc |\
dBGB dBgd | ecGc ecgf | edcB cBAG | F2[A2F2] [A2F2][BG][cA] |
dBec dBcA | BGAF GEDC | B,DGB AFGE | D2GA G2 :|
V: 2 clef=bass middle=d
z2 |\
g2d'c' bag2 | fgab c'2ba | g2d2 B2c2 | d2de dcBA |
|: z2 |\
g2G2 g2b2 | c'2c2 c'2bd' | c'bag abc'^c' | d'2de f2d2 |
g2[c'2g2] [b2g2][a2f2] | g2d2 e2[a2f2] | g2B2 c2Bc | d[ec][dB][cA] [B2G2] :|


